X:2981
T:Chinese Polka, The
M:2/4
L:1/16
R:polka
O:French-Canadian
K:D
dBAF D2DD|B,DDB, D2DD|B,DDB, D2DD|FAAF E4|
AAAF D2DD|B,DDB, D2DD|FAAA BAFD|F/E/DEC D4:|
EEEE EAAA|BBAB c2A2|EEEE Eddd|1 cBcB A4:|2 cBcB A4 B4||


